X: 36369
T: Seán Mháire Mhicilín
R: reel
M: 4/4
K: Amixolydian
E2A,A, B,A,A,D|~E2DE FDDF|EA,~A,2 B,A,G,B,|DGED B,A,B,D|
E2A,A, B,A,A,D|~E2FD EDB,D|GBGE ~F2EF|1 DDED B,A,B,D:|2 DDED B,DGD||
|:E2AA BAFA|GEFD EDB,D|EAAA BAFE|DFED B,DDF|
E2AA BAFA|GBGF EDB,D|GBGE FAEF|1 DDED B,DGD:|2 DDED B,A,B,D||
e2AA BAAd|~e2de fddf|eA~A2 BAGB|dged BABd|
e2AA BAAd|~e2fd edBd|gbge ~f2ef|1 dded BABd:|2 dded Bdgd||
|:e2aa bafa|gefd edBd|eaaa bafe|dfed Bddf|
e2aa bafa|gbgf edBd|gbge faef|1 dded Bdgd:|2 dded BABd||

